X:75
%%etbk:tnset id:307,pos:2,rep:3x,ant:
%%etbk:wsite http://www.thesession.org/tunes/display/1299
%%etbk:pldat 2016-03-30T17:50,2016-01-02T14:07,2015-12-31T14:03,2015-12-27T15:01,2015-12-24T15:47,2015-01-21T18:26,2014-11-22T15:19,2014-11-15T16:15,2014-09-25T18:32,2014-09-13T13:59,2014-05-17T14:33,2014-04-08T18:07,2014-04-01T17:28,2014-03-21T16:14,2014-02-11T16:14,2013-08-29T16:49,2013-08-27T18:27,2013-05-23T18:57,2013-05-12T18:41,2013-05-01T16:37
T: Dunrobin Castle
Z: Piano Box Version by Martin Fleischmann
H: Created 2013-02-19 /  Last Modified 2013-02-19
M: 4/4
L: 1/8
R: reel
K: Bmin
|: "bm"!3!f2!1!B!2!c !1!dfe!1!d | "A"!2!c!1!A!2!c!3!e !5!a!3!e!2!c!3!e | "bm"!4!f2!1!B!2!c !1!dfe!1!d | "f#m"!2!cdec "bm"!3!d!1!B !3!(3B!2!B!1!B |
"bm"!3!f2!1!B!2!c !1!dfe!1!d | "A"!2!c!1!A!2!c!3!e !5!a!3!e!2!c!1!A | "bm"!2!B2!4!dB "f#m"!3!c!1!de!4!g | !3!fe!1!d!2!c "bm"!3!d!1!B !3!(3B!2!B!1!B:|
|: "bm"!2!f2!5!ba !2!f!4!a!1!e!3!d | "A"!2!cA!2!c!3!e !5!a!3!e!2!c!3!e | "bm"!2!f2!5!ba !2!f!4!a!1!e!3!d | "f#m"!2!cdec "bm"!3!d!1!B !3!(3B!2!B!1!B |
"bm"!2!f2!5!ba !2!f!4!a!1!e!3!d | "A"!2!c!1!A!2!c!3!e !5!a!3!e!2!c!1!A | "bm"!2!B2!4!dB "f#m"!3!c!1!de!4!g | !3!fe!1!d!2!c "bm"!3!d!1!B !3!(3B!2!B!1!B:|


